icons/selection-manager-16.svg

<?xml version="1.0" encoding="UTF-8"?><svg id="icons" xmlns="http://www.w3.org/2000/svg" viewBox="0 0 16 16"><defs><style>.cls-1{fill:none;}.cls-1,.cls-2{stroke-width:0px;}.cls-2{fill-rule:evenodd;}</style></defs><path class="cls-2" d="M1,4h10v2.00104l1,.74554V0H0v13h7v-1H1V4ZM1,1h10v2H1V1ZM16,10.97607l-8-5.96436v9.98828l2.11621-2.80176,1.88379,3.72998,2.55469-1.28516-1.83789-3.66699h3.2832ZM13.21289,14.19824l-.77051.38818-2.1709-4.29834-1.27148,1.71191v-5.02051l4,2.99658h-1.90332l2.11621,4.22217Z"/><rect class="cls-1" width="16" height="16"/></svg>

<svg xmlns="http://www.w3.org/2000/svg" viewBox="0 0 16 16"><path d="M1 4h10v2.001l1 .746V0H0v13h7v-1H1V4zm0-3h10v2H1V1zm15 9.976L8 5.012V15l2.116-2.802L12 15.928l2.555-1.285-1.838-3.667H16zm-2.787 3.222l-.77.388-2.172-4.298L9 12V6.98l4 2.996h-1.903l2.116 4.222z" fill-rule="evenodd" stroke-width="0"/><path stroke-width="0" fill="none" d="M0 0h16v16H0z"/></svg>
